X: 41
T: Polonäs, sexdregasamlingen del 1 nr 41
B: Sexdregasamlingen del 1 nr 41
O: Sexdrega, Västergötland
R: Slängpolska
S: efter Johannes Bryngelsson
Z: 2008-05-31 av Nils L
M: 3/4
L: 1/16
K: Am
A2A2 e2f2 e2d2 | d2cB c4 B4 | A2^G2 A2B2 c2d2 | efed cdcB c2B2 |
A2A2 e2f2 e2d2 | d2cB c4 B4 | A2^G2 A2B2 c2d2 | e2dc B4 B4 ::
A2A2 a2b2 a2g2 | agfe fgfe d2c2 | d2e2 g2a2 g2f2 | 
efed efed c2B2 | c2Bc c2BA B2^G2 | A4 A8 :|

